**kern	**kern	**dynam
*part1	*part1	*part1
*staff2	*staff1	*
*I"Piano	*	*
*clefF4	*clefG2	*
*k[b-e-]	*k[b-e-]	*
=1	=1	=1
4CC	(4A 4e- 4f	.
(8CC 8C	8B-) 8e- 8g	.
=	=	=
4FFF) 4FF	(4A 4e- 4f	p
(8CC 8C	8B- 8e- 8g	.
=	=	=
4FFF) 4FF	4A 4e- 4f	.
(8FF	8A) 8e- 8g	.
=	=	=
4BBB-)	[4.B- [4.d [4.f	.
(8FF	.	.
=	=	=
4BBB-)	4B-] 4d] 4f]	.
*	*clefF4	*
(8FF	[8F [8B- [8d	.
=	=	=
4BBB-)	4.F_ 4.B-_ 4.d_	>
(8FF	.	.
=	=	=
4BBB-)	4F] 4B-] 4d]	.
(8FF	[8F [8B- [8d	.
=	=	=
4BBB-;)	4F;] 4B-] 4d]	pp
==	==	==
*-	*-	*-
!!!system-decoration: {(s1,s2)}
